X:1
T:O all ye people, clap your hands
T:O all ye people, clap your hands (John Broderip)
C:John Broderip
Z:Text: Nahum Tate/Nicholas Brady, on Ps. 47
%%score [ 1 2 3 4 ]
L:1/8
M:2/2
K:G
V:1 treble nm="SOPRANO" snm="S."
V:2 treble nm="ALTO" snm="A."
V:3 treble-8 transpose=-12 nm="TENOR" snm="T."
V:4 bass nm="BASS" snm="B."
V:1
 G4 d2 c2 | B4 A4 | G6 A2 | B4 z2 A2 | B2 A2 B2 ^c2 | d4 e4 | f2 f2 f2 f2 | f4 (e2 d2) | d4 ^c4 | %9
w: Your ut- most|skill in|praise be|shown, For|him, who all the|world com-|mands, for him, who|all the _|world com-|
w: O all ye|peo- ple,|clap your|hands, And|with tri- um- phant|voi- ces|sing, and with tri-|um- phant _|voi- ces|
w: God is gone|up, our|Lord and|King, With|shouts of joy and|trum- pet’s|sound, with shouts of|joy and _|trum- pet’s|
 d8 | z8 | z8 | z8 | z8 | z8 | z8 | z8 | z8 | d4 c2 B2 | A4 B4 | (c2 B2) (A2 G2) | F2 D2 F2 A2 | %22
w: mands;|||||||||Who sits up-|on his|right- * eous _|throne, And spreads his|
w: sing;|||||||||No force the|migh- ty|pow’r _ with- *|stands Of God, the|
w: sound;|||||||||To him re-|peat- ed|prai- * ses _|sing, And let the|
 d8- | d4 c4 | B4 (TA3 G) | G8 |] %26
w: sway|_ o’er|hea- then _|lands.|
w: u-|* ni-|ver- sal _|King.|
w: cheer-|* ful|song go _|round.|
V:2
 D4 G2 F2 | G4 F4 | G6 F2 | G4 z2 F2 | G2 D2 G2 G2 | F4 G4 | F2 D2 D2 D2 | F4 G4 | F4 E4 | D8 | %10
w: Your ut- most|skill in|praise be|shown, For|him, who all the|world com-|mands, for him, who|all the|world com-|mands;|
w: O all ye|peo- ple,|clap your|hands, And|with tri- um- phant|voi- ces|sing, and with tri-|um- phant|voi- ces|sing;|
w: God is gone|up, our|Lord and|King, With|shouts of joy and|trum- pet’s|sound, with shouts of|joy and|trum- pet’s|sound;|
 z8 | z8 | z8 | z8 | z8 | z8 | z8 | z8 | B,4 A,2 G,2 | D4 G4 | E4 C4 | D8 | z2 G2 G2 G2 | G4 E4 | %24
w: ||||||||Who sits up-|on his|right- eous|throne,|And spreads his|sway o’er|
w: ||||||||No force the|migh- ty|pow’r with-|stands|Of God, the|u- ni-|
w: ||||||||To him re-|peat- ed|prai- ses|sing,|And let the|cheer- ful|
 D6 C2 | B,8 |] %26
w: hea- then|lands.|
w: ver- sal|King.|
w: song go|round.|
V:3
 B4 B2 c2 | d4 d4 | d6 d2 | d4 z2 d2 | d2 c2 B2 G2 | A4 ^c4 | d2 A2 A2 A2 | A4 B4 | A6 G2 | F8 | %10
w: Your ut- most|skill in|praise be|shown, For|him, who all the|world com-|mands, for him, who|all the|world com-|mands;|
w: O all ye|peo- ple,|clap your|hands, And|with tri- um- phant|voi- ces|sing, and with tri-|um- phant|voi- ces|sing;|
w: God is gone|up, our|Lord and|King, With|shouts of joy and|trum- pet’s|sound, with shouts of|joy and|trum- pet’s|sound;|
 d4 c2 B2 | A4 B4 | (c2 B2) (A2 G2) | F2 D2 F2 A2 | d8- | d4 c4 | B4 A4 | G8 | z8 | z8 | z8 | z8 | %22
w: Who sits up-|on his|right- * eous _|throne, And spreads his|sway|_ o’er|hea- then|lands,|||||
w: No force the|migh- ty|pow’r _ with- *|stands Of God, the|u-|* ni-|ver- sal|King,|||||
w: To him re-|peat- ed|prai- * ses _|sing, And let the|cheer-|* ful|song go|round,|||||
 z2 d2 d2 d2 | B4 A4 | G4 F4 | G8 |] %26
w: And spreads his|sway o’er|hea- then|lands.|
w: Of God, the|u- ni-|ver- sal|King.|
w: And let the|cheer- ful|song go|round.|
V:4
 G,4 B,2 A,2 | G,4 D,4 | (B,,2 G,,2 B,,2) D,2 | G,4 z2 D,2 | G,2 F,2 G,2 E,2 | F,4 E,4 | %6
w: Your ut- most|skill in|praise _ _ be|shown, For|him, who all the|world com-|
w: O all ye|peo- ple,|clap _ _ your|hands, And|with tri- um- phant|voi- ces|
w: God is gone|up, our|Lord _ _ and|King, With|shouts of joy and|trum- pet’s|
 D,2 D,2 D,2 D,2 | D,4 G,4 | A,4 A,,4 | D,8 | B,4 A,2 G,2 | F,4 G,4 | E,4 C,4 | D,8 | %14
w: mands, for him, who|all the|world com-|mands;|Who sits up-|on his|right- eous|throne,|
w: sing, and with tri-|um- phant|voi- ces|sing;|No force the|migh- ty|pow’r with-|stands|
w: sound, with shouts of|joy and|trum- pet’s|sound;|To him re-|peat- ed|prai- ses|sing,|
 z2 G,,2 B,,2 D,2 | G,4 C,4 | D,6 D,2 | G,8 | z8 | z8 | %20
w: And spreads his|sway o’er|hea- then|lands,|||
w: Of God, the|u- ni-|ver- sal|King,|||
w: And let the|cheer- ful|song go|round,|||
"^Notes:Clefs in the source are treble, alto, tenor and bass.Only the first verse of the text is given in the source: three selected further verses have here been added editorially." z8 | %21
w: |
w: |
w: |
 z8 | z2 G,,2 B,,2 D,2 | E,4 C,4 | D,4 D,4 | G,,8 |] %26
w: |And spreads his|sway o’er|hea- then|lands.|
w: |Of God, the|u- ni-|ver- sal|King.|
w: |And let the|cheer- ful|song go|round.|

